src/assets/signals/historical_balance.svg

<svg width="28" height="30" viewBox="0 0 28 30" fill="none" xmlns="http://www.w3.org/2000/svg">
  <path d="M19.7367 14.1553C28.6311 16.3965 19.5328 26.0221 14.0625 26.0221C8.59226 26.0221 3.94234 22.4324 2.59882 18.2104C1.2553 13.9884 0.798207 12.4455 5.31923 8.77994C9.84025 5.11434 10.8423 11.9141 19.7367 14.1553Z" fill="#E7EAF3"/>
  <path d="M23.9123 13.5646C23.5512 8.81172 19.5801 5.06763 14.7347 5.06763C9.65106 5.06763 5.53027 9.18841 5.53027 14.2721C5.53027 19.3558 9.65106 23.4766 14.7347 23.4766C14.9726 23.4766 15.2088 23.4674 15.4421 23.4497M15.2368 10.2556V14.2721C15.2368 14.5494 15.012 14.7742 14.7347 14.7742H10.7182M26.1675 19.6245C26.0248 19.7214 25.3186 20.0799 25.1629 20.1577C24.3527 20.5628 23.2685 20.7989 22.0983 20.7989C20.9282 20.7989 19.8439 20.5628 19.0337 20.1577C18.878 20.0799 18.2255 19.7214 18.0828 19.6245M17.9231 22.2768C18.0657 22.3737 18.878 22.7576 19.0336 22.8354C19.8439 23.2405 20.9281 23.4766 22.0983 23.4766C23.2686 23.4766 24.3528 23.2405 25.163 22.8354C25.3187 22.7576 26.0248 22.3737 26.1675 22.2768M19.0337 16.4195C18.2535 16.8096 17.5798 17.4414 17.5798 18.2886V23.6439C17.5798 24.4911 18.2534 25.123 19.0336 25.5131C19.8439 25.9182 20.9281 26.1542 22.0983 26.1542C23.2686 26.1542 24.3528 25.9182 25.163 25.5131C25.9432 25.123 26.6169 24.4911 26.6169 23.6439V18.2886C26.6169 17.4414 25.9432 16.8096 25.1629 16.4195C24.3527 16.0144 23.2685 15.7783 22.0983 15.7783C20.9282 15.7783 19.8439 16.0144 19.0337 16.4195Z" stroke="#505573" stroke-width="1.5" stroke-miterlimit="10" stroke-linecap="round" stroke-linejoin="round"/>
</svg>

<svg width="28" height="30" fill="none" xmlns="http://www.w3.org/2000/svg"><path d="M19.737 14.155c8.894 2.242-.204 11.867-5.674 11.867-5.47 0-10.12-3.59-11.464-7.812-1.344-4.222-1.8-5.765 2.72-9.43 4.521-3.666 5.523 3.134 14.418 5.375z" fill="#E7EAF3"/><path d="M23.912 13.565a9.205 9.205 0 1 0-8.47 9.885m-.205-13.194v4.016a.502.502 0 0 1-.502.502h-4.017m15.45 4.85c-.143.097-.85.456-1.005.534-.81.405-1.895.64-3.065.64s-2.254-.235-3.064-.64a17.216 17.216 0 0 1-.951-.534m-.16 2.653c.143.097.955.48 1.11.558.81.405 1.895.642 3.065.642s2.255-.236 3.065-.642c.156-.077.862-.461 1.005-.558m-7.134-5.858c-.78.39-1.454 1.022-1.454 1.87v5.355c0 .847.673 1.479 1.454 1.87.81.404 1.894.64 3.064.64 1.17 0 2.255-.236 3.065-.64.78-.391 1.454-1.023 1.454-1.87v-5.355c0-.848-.674-1.48-1.454-1.87-.81-.405-1.895-.64-3.065-.64s-2.254.235-3.064.64z" stroke="#505573" stroke-width="1.5" stroke-miterlimit="10" stroke-linecap="round" stroke-linejoin="round"/></svg>
